X:7638
T:Touch Me If You Dare
O:england
R:reel
M:C|
K:G
dc|BG~G2 AGED|BGGF GBdc|BG~G2 AGED|EAAG A2dc|
BG~G2 AGED|BGGF GBdc|BG~G2 AGED|(3EFG FA G2:|
|:Bc|dega bgag|(3efg dg (3efg dB|dega bgag|eaag a2ge|
dega bgag|(3efg dg (3efg dc|BG~G2 AGED|(3EFG FA G2:|


